X: 1
T:Lord James Murray's -- Reel
M:C|
L:1/8
R:reel
B:Ryan's Mammoth Collection
N:362
Z:Contributed by Ray Davies,  ray:davies99.freeserve.co.uk
K:D
uf|\
vd2(AB/c/) dA FD | E"4"e2d cABc | u(dA)Bd Ad AF | GBAF D/D/D (Df) |
vd2(AB/c/) dAFD | E"4"e2d cABc | u(dA)Bd AdAF | GBAF D/D/D D|]
uf|\
vadfd fadf | bege gbeg | adfd fadf | geaf d/d/d (df) |
vadfd fadf | bege gbeg | faef d"4"eBd | AdAF D/D/D D |]
